assets/fc/fc-planner.svg

<svg xmlns="http://www.w3.org/2000/svg" width="100%" height="100%" viewBox="0 0 48 48"><path fill="#CFD8DC" d="M5 38V14h38v24c0 2.2-1.8 4-4 4H9c-2.2 0-4-1.8-4-4z"/><path fill="#F44336" d="M43 10v6H5v-6c0-2.2 1.8-4 4-4h30c2.2 0 4 1.8 4 4z"/><g fill="#B71C1C"><circle cx="33" cy="10" r="3"/><circle cx="15" cy="10" r="3"/></g><g fill="#B0BEC5"><path d="M33 3c-1.1 0-2 .9-2 2v5c0 1.1.9 2 2 2s2-.9 2-2V5c0-1.1-.9-2-2-2zM15 3c-1.1 0-2 .9-2 2v5c0 1.1.9 2 2 2s2-.9 2-2V5c0-1.1-.9-2-2-2z"/></g><g fill="#B0BEC5"><path d="M13 21h6v6h-6zM21 21h6v6h-6zM29 21h6v6h-6zM13 29h6v6h-6zM21 29h6v6h-6z"/></g><path fill="#F44336" d="M29 29h6v6h-6z"/></svg>

<svg xmlns="http://www.w3.org/2000/svg" width="100%" height="100%" viewBox="0 0 48 48"><path fill="#CFD8DC" d="M5,38V14h38v24c0,2.2-1.8,4-4,4H9C6.8,42,5,40.2,5,38z"/><path fill="#F44336" d="M43,10v6H5v-6c0-2.2,1.8-4,4-4h30C41.2,6,43,7.8,43,10z"/><g fill="#B71C1C"><circle cx="33" cy="10" r="3"/><circle cx="15" cy="10" r="3"/></g><g fill="#B0BEC5"><path d="M33 3c-1.1 0-2 .9-2 2v5c0 1.1.9 2 2 2s2-.9 2-2V5C35 3.9 34.1 3 33 3zM15 3c-1.1 0-2 .9-2 2v5c0 1.1.9 2 2 2s2-.9 2-2V5C17 3.9 16.1 3 15 3z"/></g><g fill="#B0BEC5"><path d="M13 21H19V27H13zM21 21H27V27H21zM29 21H35V27H29zM13 29H19V35H13zM21 29H27V35H21z"/></g><path fill="#F44336" d="M29 29H35V35H29z"/></svg>
